X:53
T:Harvest Home
C:Dayhills
M:4/4
L:1/8
Q:1/8=400
K:D
AF|:DAFA DAFA|defe dcBA|eAfA gAfA|e/f/ed/c/B A/B/AG/F/E|
DAFA DAFA|defe dcBA|eAfA gfec|1 d2f2 d2AF:|2 d2f2 d2cd |
|:e/A/AA/B/A f/A/AA/B/A|gAfA e/A/AA/B/A|eAfA gAfA|e/f/ed/c/B A/B/AG/F/E|
DAFA DAFA|defe dcBA|eAfA gfec|1 d2f2 d2cd:|2 d2f2 d2|
